logo/spree.svg

<?xml version="1.0" encoding="UTF-8"?>
<svg width="512px" height="209px" viewBox="0 0 512 209" version="1.1" xmlns="http://www.w3.org/2000/svg" xmlns:xlink="http://www.w3.org/1999/xlink" preserveAspectRatio="xMidYMid">
		<g>
				<path d="M193.937461,171.926226 C184.475071,171.926226 173.360779,167.572591 168.554325,160.361645 C167.504494,159.009514 167.052941,157.509394 167.052941,155.856227 C167.052941,151.802362 170.808299,148.346775 174.862163,148.346775 C176.965619,148.346775 178.918558,149.396606 180.870231,151.651845 C183.874265,155.404673 188.23043,157.208358 193.937461,157.208358 C204.000658,157.208358 209.858208,151.350809 209.858208,145.192223 C209.858208,138.584614 203.249334,134.077931 194.989822,131.073897 C186.729045,128.071128 177.866197,125.216348 172.009912,117.857414 C169.156397,114.102055 167.653747,109.597902 167.653747,104.040123 C167.653747,88.5696658 180.57046,79.5575646 194.989822,79.5575646 C204.601465,79.5575646 215.114951,84.8143075 220.371693,92.7753131 C221.123018,93.9769266 221.573307,95.3277931 221.573307,96.9796954 C221.573307,101.185343 217.968466,104.490412 213.762819,104.490412 C211.51011,104.490412 209.558437,103.287534 207.756017,100.885572 C204.601465,96.5294066 200.395818,94.2766975 194.989822,94.2766975 C187.178069,94.2766975 182.672651,98.6328626 182.672651,104.040123 C182.672651,109.597902 189.281525,113.351996 197.542302,116.356029 C205.803078,119.510581 214.664662,122.665133 220.522211,130.623608 C223.375727,134.680003 224.877112,139.485192 224.877112,145.192223 C224.877112,161.263488 210.609532,171.926226 193.937461,171.926226 Z M250.970212,193.166326 C250.970212,197.832381 247.509565,200.690956 243.446847,200.690956 C239.384128,200.690956 235.923481,197.832381 235.923481,193.166326 L235.923481,111.909427 C235.923481,94.0028561 250.36814,79.5581971 268.274711,79.5581971 C286.182547,79.5581971 300.627206,94.0028561 300.627206,111.909427 L300.627206,139.748914 C300.627206,157.65422 286.182547,172.100144 268.274711,172.100144 C261.503935,172.100144 255.78552,169.992894 250.970212,165.630404 L250.970212,193.166326 Z M250.970212,139.748914 C250.970212,149.378265 258.644095,157.053413 268.274711,157.053413 C277.905327,157.053413 285.57921,149.378265 285.57921,139.748914 L285.57921,111.909427 C285.57921,102.278811 277.905327,94.6049277 268.274711,94.6049277 C258.644095,94.6049277 250.970212,102.278811 250.970212,111.909427 L250.970212,139.748914 Z M358.37928,100.962728 C356.403575,100.962728 354.583446,100.202549 352.912571,98.532939 L352.609006,98.2293735 C349.725133,95.9526321 346.53896,94.7383701 342.743126,94.7383701 C333.786679,94.7383701 328.321235,100.962728 328.321235,113.258396 L328.321235,163.809643 C328.321235,168.516174 324.830231,171.400046 320.730832,171.400046 C316.631433,171.400046 313.140429,168.516174 313.140429,163.809643 L313.140429,113.258396 C313.140429,94.2830218 323.91827,79.5575646 342.743126,79.5575646 C350.027434,79.5575646 358.832099,82.8967853 363.843459,87.9068811 C365.361287,89.5764915 366.120201,91.2473666 366.120201,93.2192776 C366.120201,97.3186769 362.477415,100.962728 358.37928,100.962728 Z M436.71512,122.362705 C436.71512,126.4191 433.260797,129.872157 429.205668,129.872157 L387.150461,129.872157 L387.150461,139.635583 C387.150461,148.64642 395.862791,156.907196 405.925988,156.907196 C411.93279,156.907196 416.739244,154.955523 420.494603,151.200164 C422.14524,148.94619 424.098178,147.745842 426.501405,147.745842 C430.557799,147.745842 434.313158,151.200164 434.313158,155.254029 C434.313158,158.259327 432.659991,160.211001 430.85757,162.013421 C424.70025,168.622295 416.288955,171.9261 405.925988,171.9261 C388.353339,171.9261 372.130292,157.509268 372.130292,139.635583 L372.130292,111.84922 C372.130292,93.9768001 386.550919,79.5574381 404.423338,79.5574381 C422.295758,79.5574381 436.71512,93.9768001 436.71512,111.84922 L436.71512,122.362705 Z M421.696216,114.853253 L421.696216,111.84922 C421.696216,102.236312 414.034981,94.5776068 404.423338,94.5776068 C394.81043,94.5776068 387.150461,102.236312 387.150461,111.84922 L387.150461,114.853253 L421.696216,114.853253 Z M511.723249,122.362705 C511.723249,126.4191 508.268927,129.872157 504.213798,129.872157 L462.159855,129.872157 L462.159855,139.635583 C462.159855,148.64642 470.87092,156.907196 480.934117,156.907196 C486.94092,156.907196 491.748639,154.955523 495.502732,151.200164 C497.154634,148.94619 499.106308,147.745842 501.5108,147.745842 C505.565929,147.745842 509.321287,151.200164 509.321287,155.254029 C509.321287,158.259327 507.669385,160.211001 505.8657,162.013421 C499.708379,168.622295 491.29835,171.9261 480.934117,171.9261 C463.361468,171.9261 447.138421,157.509268 447.138421,139.635583 L447.138421,111.84922 C447.138421,93.9768001 461.559048,79.5574381 479.431468,79.5574381 C497.305152,79.5574381 511.723249,93.9768001 511.723249,111.84922 L511.723249,122.362705 Z M496.704346,114.853253 L496.704346,111.84922 C496.704346,102.236312 489.043111,94.5776068 479.431468,94.5776068 C469.81856,94.5776068 462.159855,102.236312 462.159855,111.84922 L462.159855,114.853253 L496.704346,114.853253 Z" fill="#0066CC"></path>
				<path d="M57.5509623,159.793978 C57.5509623,165.499744 52.9266476,170.124059 47.2208808,170.124059 C41.5163789,170.124059 36.8920642,165.499744 36.8920642,159.793978 C36.8920642,154.088211 41.5163789,149.463896 47.2208808,149.463896 C52.9266476,149.463896 57.5509623,154.088211 57.5509623,159.793978" fill="#0066CC"></path>
				<path d="M100.977906,159.793978 C100.977906,165.499744 96.3523265,170.124059 90.6478246,170.124059 C84.9433226,170.124059 80.3190079,165.499744 80.3190079,159.793978 C80.3190079,154.088211 84.9433226,149.463896 90.6478246,149.463896 C96.3523265,149.463896 100.977906,154.088211 100.977906,159.793978" fill="#0066CC"></path>
				<path d="M94.4430261,139.13508 L43.4275766,139.13508 C39.330707,139.13508 35.6385914,136.66608 34.075229,132.8791 L20.6373956,100.345731 L10.1188505,100.345731 C4.5307153,100.345731 0,95.8150158 0,90.2268806 C0,84.6387454 4.5307153,80.1080301 10.1188505,80.1080301 L27.4056417,80.1080301 C31.5025113,80.1080301 35.1946268,82.5782945 36.7579892,86.3640094 L50.1958227,118.897379 L87.7418174,118.897379 L101.569227,86.2779992 C103.751104,81.1312988 109.689604,78.7331313 114.836304,80.909949 C119.980475,83.0918261 122.383702,89.0303265 120.20309,94.175762 L103.759958,132.96511 C102.173828,136.705291 98.5057446,139.13508 94.4430261,139.13508" fill="#0066CC"></path>
				<path d="M105.747047,46.5373523 C101.875322,42.5049904 95.4700898,42.375975 91.4389928,46.2477002 L78.8422888,58.3422562 L78.8422888,10.1196094 C78.8422888,4.53020936 74.3128383,0.000758913786 68.7234383,0.000758913786 C63.1353031,0.000758913786 58.6045878,4.53020936 58.6045878,10.1196094 L58.6045878,58.1057281 L46.4822049,46.2970296 C42.4789347,42.3987424 36.0724375,42.4809581 32.1728855,46.4854932 C28.2733335,50.4887634 28.356814,56.8952606 32.3600842,60.7948126 L61.6630104,89.3362952 C61.7970851,89.4665754 61.9412788,89.5816774 62.080413,89.7031036 C62.1537746,89.7676112 62.2246066,89.8346486 62.300498,89.8978914 C62.6445389,90.1812193 63.0024932,90.4392499 63.3730961,90.6707187 C63.4249552,90.7023401 63.4806089,90.7314318 63.5337329,90.764318 C63.8980115,90.9818733 64.2724089,91.1753963 64.6556604,91.3436222 C64.6910764,91.3588005 64.7214329,91.380303 64.7568489,91.3954813 C64.7808812,91.4056002 64.8049135,91.4131893 64.8276809,91.4220433 C65.0578847,91.5181724 65.2906183,91.600388 65.5258815,91.6775443 C65.6118918,91.706636 65.6966372,91.7407871 65.7826474,91.7673491 C66.0128512,91.8356513 66.2468496,91.891305 66.4795832,91.944429 C66.5731826,91.9659315 66.6655171,91.9937584 66.7591165,92.0114663 C66.9931149,92.058266 67.2283781,92.0886226 67.4636414,92.1177143 C67.5572408,92.129098 67.6483104,92.1493357 67.7419098,92.1569248 C68.0581239,92.1885462 68.374338,92.2037245 68.690552,92.2037245 C68.7006709,92.2037245 68.7107897,92.2062542 68.7221734,92.2062542 L68.7234383,92.2062542 C68.7500003,92.2062542 68.7778271,92.2024596 68.8043891,92.2024596 C69.1003655,92.1999299 69.3963419,92.1872814 69.6897885,92.1594545 C69.8643387,92.1430114 70.037624,92.1101251 70.2096445,92.084828 C70.3551029,92.0633255 70.5005614,92.0481472 70.644755,92.0203203 C70.8509266,91.9811098 71.0545685,91.9254561 71.2582103,91.873597 C71.3657231,91.8445053 71.4757656,91.8242676 71.5820136,91.7926462 C71.7919797,91.7306682 71.9956216,91.6547769 72.2017932,91.5788855 C72.3004519,91.5434695 72.4016405,91.513113 72.5002992,91.4726376 C72.696352,91.3942165 72.8873453,91.301882 73.0796034,91.2095474 C73.1845865,91.160218 73.2908344,91.1146832 73.3932878,91.0615593 C73.567838,90.9704896 73.7373287,90.8680362 73.9080843,90.7655829 C74.0244511,90.6960158 74.1433476,90.6302433 74.2571847,90.5556167 C74.4064377,90.4582228 74.5506313,90.3494452 74.6960898,90.2431972 C74.8251051,90.148333 74.9553853,90.0547336 75.0806061,89.9535451 C75.2070917,89.8510918 75.328518,89.7397844 75.451209,89.6310068 C75.5448084,89.5475263 75.6422023,89.4728997 75.733272,89.3856246 L105.457395,60.8454069 C109.488492,56.9736817 109.617508,50.5684493 105.747047,46.5373523" fill="#99CC00"></path>
				<path d="M70.2865471,208.736707 C60.1487237,208.736707 49.574525,204.919371 38.2072613,197.285963 C33.5677684,194.170622 32.3320038,187.884286 35.4473449,183.244793 C38.5626859,178.606565 44.8490218,177.3708 49.4897796,180.484877 C67.2078868,192.38338 77.2192245,189.517216 87.6327865,181.038884 C91.9674491,177.511199 98.34106,178.1626 101.868744,182.497263 C105.396429,186.831926 104.743763,193.205537 100.4091,196.733221 C90.5786368,204.735967 80.6621634,208.736707 70.2865471,208.736707" fill="#99CC00"></path>
		</g>
</svg>

<svg viewBox="0 0 512 209" xmlns="http://www.w3.org/2000/svg"><g fill="#06C"><path d="M193.93 171.92c-9.47 0-20.58-4.36-25.39-11.57 -1.05-1.36-1.51-2.86-1.51-4.51 0-4.06 3.75-7.51 7.8-7.51 2.1 0 4.05 1.04 6 3.3 3 3.75 7.36 5.55 13.06 5.55 10.06 0 15.92-5.86 15.92-12.02 0-6.61-6.61-11.12-14.87-14.12 -8.27-3.01-17.13-5.86-22.98-13.22 -2.86-3.76-4.36-8.26-4.36-13.82 0-15.48 12.91-24.49 27.33-24.49 9.61 0 20.12 5.25 25.38 13.21 .75 1.2 1.2 2.55 1.2 4.2 0 4.2-3.61 7.51-7.82 7.51 -2.26 0-4.21-1.21-6.01-3.61 -3.16-4.36-7.37-6.61-12.77-6.61 -7.82 0-12.32 4.35-12.32 9.76 0 5.55 6.6 9.31 14.86 12.31 8.26 3.15 17.12 6.3 22.97 14.26 2.85 4.05 4.35 8.86 4.35 14.56 0 16.07-14.27 26.73-30.94 26.73Zm57.03 21.24c0 4.66-3.47 7.52-7.53 7.52 -4.07 0-7.53-2.86-7.53-7.53v-81.26c0-17.91 14.44-32.36 32.35-32.36 17.9 0 32.35 14.44 32.35 32.35v27.83c0 17.9-14.45 32.35-32.36 32.35 -6.78 0-12.49-2.11-17.31-6.47v27.53Zm0-53.42c0 9.62 7.67 17.3 17.3 17.3s17.3-7.68 17.3-17.31v-27.84c0-9.64-7.68-17.31-17.31-17.31 -9.64 0-17.31 7.67-17.31 17.3v27.83Zm107.4-38.79c-1.98 0-3.8-.77-5.47-2.43l-.31-.31c-2.89-2.28-6.08-3.5-9.87-3.5 -8.96 0-14.43 6.22-14.43 18.52v50.55c0 4.7-3.5 7.59-7.6 7.59s-7.6-2.89-7.6-7.6v-50.56c0-18.98 10.77-33.71 29.6-33.71 7.28 0 16.08 3.33 21.1 8.34 1.51 1.66 2.27 3.34 2.27 5.31 0 4.09-3.65 7.74-7.75 7.74Zm78.33 21.39c0 4.05-3.46 7.5-7.51 7.5h-42.06v9.76c0 9.01 8.71 17.27 18.77 17.27 6 0 10.81-1.96 14.56-5.71 1.65-2.26 3.6-3.46 6-3.46 4.05 0 7.81 3.45 7.81 7.5 0 3-1.66 4.95-3.46 6.75 -6.16 6.6-14.57 9.91-24.94 9.91 -17.58 0-33.8-14.42-33.8-32.3v-27.79c0-17.88 14.42-32.3 32.29-32.3 17.87 0 32.29 14.41 32.29 32.29v10.51Zm-15.02-7.51v-3.01c0-9.62-7.67-17.28-17.28-17.28 -9.62 0-17.28 7.65-17.28 17.27v3h34.54Zm90.02 7.5c0 4.05-3.46 7.5-7.51 7.5h-42.06v9.76c0 9.01 8.71 17.27 18.77 17.27 6 0 10.81-1.96 14.56-5.71 1.65-2.26 3.6-3.46 6-3.46 4.05 0 7.81 3.45 7.81 7.5 0 3-1.66 4.95-3.46 6.75 -6.16 6.6-14.57 9.91-24.94 9.91 -17.58 0-33.8-14.42-33.8-32.3v-27.79c0-17.88 14.42-32.3 32.29-32.3 17.87 0 32.29 14.41 32.29 32.29v10.51Zm-15.02-7.51v-3.01c0-9.62-7.67-17.28-17.28-17.28 -9.62 0-17.28 7.65-17.28 17.27v3h34.54Z"/><path d="M57.55 159.79c0 5.7-4.63 10.33-10.34 10.33s-10.33-4.63-10.33-10.34 4.62-10.34 10.32-10.34 10.33 4.62 10.33 10.33"/><path d="M100.97 159.79c0 5.7-4.63 10.33-10.34 10.33s-10.33-4.63-10.33-10.34 4.62-10.34 10.32-10.34 10.33 4.62 10.33 10.33"/><path d="M94.44 139.13H43.42c-4.1 0-7.79-2.47-9.36-6.26l-13.44-32.54H10.1c-5.59 0-10.12-4.54-10.12-10.12 0-5.59 4.53-10.12 10.11-10.12h17.28c4.09 0 7.78 2.47 9.35 6.25l13.43 32.53h37.54l13.82-32.62c2.18-5.15 8.12-7.55 13.26-5.37 5.14 2.18 7.54 8.12 5.36 13.26l-16.45 38.78c-1.59 3.74-5.26 6.16-9.32 6.16"/></g><g fill="#9C0"><path d="M105.74 46.53c-3.88-4.04-10.28-4.17-14.31-.29l-12.6 12.09V10.1c0-5.59-4.53-10.12-10.12-10.12 -5.59 0-10.12 4.52-10.12 10.11v47.98L46.46 46.26c-4.01-3.9-10.41-3.82-14.31.18 -3.9 4-3.82 10.4.18 14.3l29.3 28.54c.13.13.27.24.41.36 .07.06.14.13.22.19 .34.28.7.54 1.07.77 .05.03.1.06.16.09 .36.21.73.41 1.12.57 .03.01.06.03.1.05 .02.01.04.01.07.02 .23.09.46.17.69.25 .08.02.17.06.25.08 .23.06.46.12.69.17 .09.02.18.04.27.06 .23.04.46.07.7.1 .09.01.18.03.27.03 .31.03.63.04.94.04 .01 0 .02 0 .03 0h0c.02 0 .05-.01.08-.01 .29-.01.59-.02.88-.05 .17-.02.34-.05.51-.08 .14-.03.29-.04.43-.07 .2-.04.4-.1.61-.15 .1-.03.21-.05.32-.09 .2-.07.41-.14.61-.22 .09-.04.19-.07.29-.11 .19-.08.38-.18.57-.27 .1-.05.21-.1.31-.15 .17-.1.34-.2.51-.3 .11-.07.23-.14.34-.21 .14-.1.29-.21.43-.32 .12-.1.25-.19.38-.29 .12-.11.24-.22.37-.33 .09-.09.19-.16.28-.25l29.72-28.55c4.03-3.88 4.16-10.28.28-14.31"/><path d="M70.28 208.73c-10.14 0-20.72-3.82-32.08-11.46 -4.64-3.12-5.88-9.41-2.76-14.05 3.11-4.64 9.4-5.88 14.04-2.76 17.71 11.89 27.72 9.03 38.14.55 4.33-3.53 10.7-2.88 14.23 1.45 3.52 4.33 2.87 10.7-1.46 14.23 -9.84 8-19.75 12-30.13 12"/></g></svg>
